icons/hospital-bill-checklist-two-color.svg

<?xml version="1.0" encoding="UTF-8"?><svg xmlns="http://www.w3.org/2000/svg" viewBox="0 0 50 50"><g id="uuid-46890fea-7e0d-49ba-8b18-99df682e79f9"><path d="M32.62,11.67v-1h-.75V3.28H8.28V49.47H42.76v-11.75c-1.25,2.74-4.01,4.66-7.21,4.66-4.37,0-7.92-3.55-7.92-7.92s3.55-7.92,7.92-7.92c3.2,0,5.96,1.91,7.21,4.66V11.67h-10.14Zm-8.41,2.75h-3.73c-.28,0-.5,.22-.5,.5v3.73h-3.31v-3.73c0-.28-.22-.5-.5-.5h-3.73v-3.31h3.73c.28,0,.5-.22,.5-.5v-3.73h3.31v3.73c0,.28,.22,.5,.5,.5h3.73v3.31Z" fill="#ffcd00"/><path d="M44.47,34.46c0-2.38-.94-4.54-2.46-6.14V11.17s0-.04-.01-.06c0-.02,0-.04-.01-.06-.02-.08-.06-.16-.12-.22h0L31.72,.67h0c-.06-.06-.14-.1-.22-.12-.02,0-.04-.01-.07-.01-.02,0-.04-.01-.06-.01H6.03c-.28,0-.5,.22-.5,.5V48.22c0,.28,.22,.5,.5,.5H41.51c.28,0,.5-.22,.5-.5v-7.63c1.52-1.6,2.46-3.76,2.46-6.14ZM6.53,47.72V1.53H30.87V11.17c0,.28,.22,.5,.5,.5h9.64v15.75c-1.51-1.17-3.4-1.88-5.46-1.88-4.92,0-8.92,4-8.92,8.92s4,8.92,8.92,8.92c2.06,0,3.95-.71,5.46-1.88v6.22H6.53Zm29.03-5.34c-4.37,0-7.92-3.55-7.92-7.92s3.55-7.92,7.92-7.92,7.92,3.55,7.92,7.92-3.55,7.92-7.92,7.92Zm4.75-31.71h-8.44V2.23l8.44,8.44Z"/><path d="M39.32,30.05c-.24-.14-.54-.06-.68,.18l-4.29,7.34-1.92-2.36c-.17-.21-.49-.25-.7-.07-.21,.17-.25,.49-.07,.7l2.38,2.91c.1,.12,.24,.18,.39,.18h.04c.16-.01,.31-.11,.39-.25l4.65-7.96c.14-.24,.06-.54-.18-.68Z"/><path d="M11.77,25.13H28.12c.28,0,.5-.22,.5-.5s-.22-.5-.5-.5H11.77c-.28,0-.5,.22-.5,.5s.22,.5,.5,.5Z"/><path d="M11.77,32.83h11.05c.28,0,.5-.22,.5-.5s-.22-.5-.5-.5H11.77c-.28,0-.5,.22-.5,.5s.22,.5,.5,.5Z"/><path d="M23.66,39.54H11.77c-.28,0-.5,.22-.5,.5s.22,.5,.5,.5h11.89c.28,0,.5-.22,.5-.5s-.22-.5-.5-.5Z"/><path d="M39.32,30.05c-.24-.14-.54-.06-.68,.18l-4.29,7.34-1.92-2.36c-.17-.21-.49-.25-.7-.07-.21,.17-.25,.49-.07,.7l2.38,2.91c.1,.12,.24,.18,.39,.18h.04c.16-.01,.31-.11,.39-.25l4.65-7.96c.14-.24,.06-.54-.18-.68Z"/><path d="M11.94,15.42h3.73v3.73c0,.28,.22,.5,.5,.5h4.31c.28,0,.5-.22,.5-.5v-3.73h3.73c.28,0,.5-.22,.5-.5v-4.31c0-.28-.22-.5-.5-.5h-3.73v-3.73c0-.28-.22-.5-.5-.5h-4.31c-.28,0-.5,.22-.5,.5v3.73h-3.73c-.28,0-.5,.22-.5,.5v4.31c0,.28,.22,.5,.5,.5Zm.5-4.31h3.73c.28,0,.5-.22,.5-.5v-3.73h3.31v3.73c0,.28,.22,.5,.5,.5h3.73v3.31h-3.73c-.28,0-.5,.22-.5,.5v3.73h-3.31v-3.73c0-.28-.22-.5-.5-.5h-3.73v-3.31Z"/></g><g id="uuid-53933880-f27e-42f4-a6eb-b0458add61d9"><text transform="translate(.46 54.96)" font-family="Roboto-Regular, Roboto" font-size="6"><tspan x="0" y="0">hospital-bill-checklist</tspan></text></g></svg>

<svg xmlns="http://www.w3.org/2000/svg" viewBox="0 0 50 50"><g id="b0f49c3a-443a-44a5-b901-3a845520b482" data-name="ICONS"><path d="M32.62,11.67v-1h-.75V3.28H8.28V49.47H42.76V37.72a7.92,7.92,0,1,1,0-6.53V11.67Zm-8.41,2.75H20.48a.5.5,0,0,0-.5.5v3.73H16.67V14.92a.5.5,0,0,0-.5-.5H12.44V11.1h3.73a.5.5,0,0,0,.5-.5V6.87H20V10.6a.5.5,0,0,0,.5.5h3.73Z" fill="#fdd600"/><path d="M44.47,34.46A8.89,8.89,0,0,0,42,28.32V11.17s0,0,0-.06,0,0,0-.07a.59.59,0,0,0-.12-.22h0L31.72.67h0A.48.48,0,0,0,31.5.55H6a.5.5,0,0,0-.5.5V48.22a.5.5,0,0,0,.5.5H41.51a.5.5,0,0,0,.5-.5V40.6A8.91,8.91,0,0,0,44.47,34.46ZM6.53,47.72V1.53H30.87v9.64a.5.5,0,0,0,.5.5H41V27.42a8.83,8.83,0,0,0-5.46-1.88A8.92,8.92,0,1,0,41,41.5v6.22Zm29-5.34a7.92,7.92,0,1,1,7.92-7.92A7.93,7.93,0,0,1,35.55,42.38ZM40.3,10.67H31.87V2.23Z" fill="#231f20"/><path d="M39.32,30.05a.49.49,0,0,0-.68.18l-4.29,7.33-1.93-2.35a.5.5,0,0,0-.77.63L34,38.75a.49.49,0,0,0,.39.19h0a.54.54,0,0,0,.4-.25l4.65-8A.49.49,0,0,0,39.32,30.05Z" fill="#231f20"/><path d="M11.77,25.13H28.12a.51.51,0,0,0,.5-.5.5.5,0,0,0-.5-.5H11.77a.5.5,0,0,0-.5.5A.51.51,0,0,0,11.77,25.13Z" fill="#231f20"/><path d="M11.77,32.83H22.82a.5.5,0,0,0,0-1h-11a.5.5,0,1,0,0,1Z" fill="#231f20"/><path d="M23.66,39.54H11.77a.5.5,0,0,0-.5.5.51.51,0,0,0,.5.5H23.66a.5.5,0,0,0,.5-.5A.5.5,0,0,0,23.66,39.54Z" fill="#231f20"/><path d="M39.32,30.05a.49.49,0,0,0-.68.18l-4.29,7.33-1.93-2.35a.5.5,0,0,0-.77.63L34,38.75a.49.49,0,0,0,.39.19h0a.54.54,0,0,0,.4-.25l4.65-8A.49.49,0,0,0,39.32,30.05Z" fill="#231f20"/><path d="M11.94,15.42h3.73v3.73a.5.5,0,0,0,.5.5h4.31a.5.5,0,0,0,.5-.5V15.42h3.73a.5.5,0,0,0,.5-.5V10.6a.5.5,0,0,0-.5-.5H21V6.37a.5.5,0,0,0-.5-.5H16.17a.5.5,0,0,0-.5.5V10.1H11.94a.5.5,0,0,0-.5.5v4.32A.5.5,0,0,0,11.94,15.42Zm.5-4.32h3.73a.5.5,0,0,0,.5-.5V6.87H20V10.6a.5.5,0,0,0,.5.5h3.73v3.32H20.48a.5.5,0,0,0-.5.5v3.73H16.67V14.92a.5.5,0,0,0-.5-.5H12.44Z" fill="#231f20"/></g><g id="b0f1127c-8781-43ca-a519-5e38583303e9" data-name="LABELS"><text transform="translate(0.46 54.96)" font-size="6" fill="#231f20" font-family="Roboto-Regular, Roboto">hospital-bill-checklist</text></g></svg>
